images/social-vk.svg

<svg width="36" height="36" viewBox="0 0 36 36" fill="none" xmlns="http://www.w3.org/2000/svg">
<g filter="url(#filter0_d_18879_1937)">
<path fill-rule="evenodd" clip-rule="evenodd" d="M30 14C30 20.6274 24.6274 26 18 26C11.3726 26 6 20.6274 6 14C6 7.37258 11.3726 2 18 2C24.6274 2 30 7.37258 30 14ZM18.5884 16.9749H17.8711C17.8711 16.9749 16.2885 17.0584 14.8948 15.7867C13.3749 14.3995 12.0325 11.647 12.0325 11.647C12.0325 11.647 11.9551 11.4665 12.0392 11.3793C12.1337 11.2812 12.3911 11.2749 12.3911 11.2749L14.1057 11.2651C14.1057 11.2651 14.2673 11.2888 14.3829 11.3632C14.4782 11.4246 14.5317 11.5394 14.5317 11.5394C14.5317 11.5394 14.8088 12.1536 15.1758 12.7093C15.8921 13.7942 16.2258 14.0315 16.469 13.9152C16.8233 13.7458 16.7171 12.3816 16.7171 12.3816C16.7171 12.3816 16.7236 11.8865 16.5387 11.666C16.3955 11.4951 16.1254 11.4453 16.0062 11.4313C15.9097 11.42 16.0681 11.2237 16.2733 11.1356C16.5819 11.0031 17.1268 10.9955 17.7706 11.0014C18.2722 11.0058 18.4165 11.0332 18.6127 11.0748C19.0677 11.1711 19.0536 11.4796 19.0229 12.1454C19.0138 12.3444 19.0032 12.5752 19.0032 12.8418C19.0032 12.9018 19.0012 12.9657 18.9991 13.0315C18.9885 13.3725 18.9763 13.7629 19.2324 13.908C19.3637 13.9822 19.6849 13.9191 20.4884 12.7233C20.8693 12.1566 21.1549 11.4902 21.1549 11.4902C21.1549 11.4902 21.2173 11.3715 21.3142 11.3205C21.4134 11.2685 21.5472 11.2845 21.5472 11.2845L23.3515 11.2746C23.3515 11.2746 23.8937 11.218 23.9815 11.4324C24.0735 11.6576 23.7788 12.1833 23.0417 13.0444C22.3463 13.8567 22.006 14.1587 22.0328 14.4236C22.0527 14.6198 22.2739 14.7957 22.7015 15.1436C23.5897 15.8661 23.8264 16.2455 23.8827 16.3357C23.8872 16.343 23.8906 16.3484 23.893 16.3519C24.2905 16.9296 23.4522 16.9749 23.4522 16.9749L21.8497 16.9944C21.8497 16.9944 21.5053 17.0543 21.0521 16.7814C20.8151 16.6388 20.5833 16.406 20.3626 16.1842C20.0251 15.8451 19.7131 15.5316 19.4469 15.6056C19.0002 15.7298 19.0143 16.5734 19.0143 16.5734C19.0143 16.5734 19.0175 16.7536 18.9157 16.8495C18.8051 16.954 18.5884 16.9749 18.5884 16.9749Z" fill="#FCFCFC"/>
<rect x="5" y="1" width="26" height="26" rx="13" stroke="#FCFCFC" stroke-opacity="0.3" stroke-width="2" shape-rendering="crispEdges"/>
</g>
<defs>
<filter id="filter0_d_18879_1937" x="0" y="0" width="36" height="36" filterUnits="userSpaceOnUse" color-interpolation-filters="sRGB">
<feFlood flood-opacity="0" result="BackgroundImageFix"/>
<feColorMatrix in="SourceAlpha" type="matrix" values="0 0 0 0 0 0 0 0 0 0 0 0 0 0 0 0 0 0 127 0" result="hardAlpha"/>
<feOffset dy="4"/>
<feGaussianBlur stdDeviation="2"/>
<feComposite in2="hardAlpha" operator="out"/>
<feColorMatrix type="matrix" values="0 0 0 0 0 0 0 0 0 0 0 0 0 0 0 0 0 0 0.25 0"/>
<feBlend mode="normal" in2="BackgroundImageFix" result="effect1_dropShadow_18879_1937"/>
<feBlend mode="normal" in="SourceGraphic" in2="effect1_dropShadow_18879_1937" result="shape"/>
</filter>
</defs>
</svg>

<svg xmlns="http://www.w3.org/2000/svg" width="36" height="36" fill="none"><g filter="url(#a)"><path fill="#FCFCFC" fill-rule="evenodd" d="M30 14c0 6.627-5.373 12-12 12S6 20.627 6 14 11.373 2 18 2s12 5.373 12 12Zm-11.412 2.975h-.717s-1.582.083-2.976-1.188c-1.52-1.388-2.862-4.14-2.862-4.14s-.078-.18.006-.268c.095-.098.352-.104.352-.104l1.715-.01s.161.024.277.098a.476.476 0 0 1 .149.176s.277.615.644 1.17c.716 1.085 1.05 1.322 1.293 1.206.354-.17.248-1.533.248-1.533s.007-.495-.178-.716c-.144-.17-.414-.22-.533-.235-.096-.011.062-.207.267-.295.309-.133.854-.14 1.498-.135.501.005.645.032.842.074.455.096.44.405.41 1.07-.01.2-.02.43-.02.697 0 .06-.002.124-.004.19-.01.34-.023.73.233.876.132.074.453.011 1.256-1.185.381-.566.667-1.233.667-1.233s.062-.119.16-.17c.098-.052.232-.036.232-.036l1.805-.01s.542-.056.63.158c.091.226-.203.751-.94 1.612-.696.813-1.036 1.115-1.01 1.38.02.196.242.372.67.72.888.722 1.124 1.101 1.18 1.192a.447.447 0 0 0 .011.016c.398.578-.44.623-.44.623l-1.603.02s-.345.06-.798-.214c-.237-.142-.469-.375-.69-.597-.337-.339-.649-.652-.915-.578-.447.124-.433.967-.433.967s.003.18-.098.276c-.11.105-.328.126-.328.126Z" clip-rule="evenodd"/><rect width="26" height="26" x="5" y="1" stroke="#FCFCFC" stroke-opacity=".3" stroke-width="2" rx="13" shape-rendering="crispEdges"/></g><defs><filter id="a" width="36" height="36" x="0" y="0" color-interpolation-filters="sRGB" filterUnits="userSpaceOnUse"><feFlood flood-opacity="0" result="BackgroundImageFix"/><feColorMatrix in="SourceAlpha" result="hardAlpha" values="0 0 0 0 0 0 0 0 0 0 0 0 0 0 0 0 0 0 127 0"/><feOffset dy="4"/><feGaussianBlur stdDeviation="2"/><feComposite in2="hardAlpha" operator="out"/><feColorMatrix values="0 0 0 0 0 0 0 0 0 0 0 0 0 0 0 0 0 0 0.25 0"/><feBlend in2="BackgroundImageFix" result="effect1_dropShadow_18879_1937"/><feBlend in="SourceGraphic" in2="effect1_dropShadow_18879_1937" result="shape"/></filter></defs></svg>
